X: 6566
T: Catherine The Brave
R: jig
M: 6/8
K: Gmajor
D|:"G" GFG ABc|dBG e2 f|gfe dBG|"D" AGF E2 D|
"G" GFG ABc|dBG e2 f|"Em" gab "D" aga|1 "Em" e3 z2D:|2 "Em" e3 z2d|
"G" BGA BGE|"D" DFD "Em" EE/ F/G/A/|"Em" BGB "G" dBd|"D" edB AA/ G/F/G/|
"Em" E2D "G" GFE|"D" DED "Em" EE/ F/G/A/|"G" BGB "D" dBd|"Em" e3 z2D||
"G" GFG ABc|dBG e2 f|gfe dBG|"D" AGF E2 D|
"G" GFG ABc|dBG e2 f|"Em" gab "D" aga|"Em" e3 z3||

